svgs/light/user-shakespeare.svg

<svg xmlns="http://www.w3.org/2000/svg" viewBox="0 0 448 512"><!--! Font Awesome Pro 6.3.0 by @fontawesome - https://fontawesome.com License - https://fontawesome.com/license (Commercial License) Copyright 2023 Fonticons, Inc. --><path d="M341.8 329.8C328.2 305 302.2 288 272 288h-96c-30.21 0-56.23 17.02-69.84 41.78C44.35 351.9 0 410.6 0 480C0 497.7 14.33 512 32 512h384c17.67 0 32-14.29 32-31.96C448 410.6 403.6 351.9 341.8 329.8zM240 320h32c26.47 0 48 21.53 48 48v5.406c-18.66-8.441-46.9-17.77-80-20.32V320zM128 368C128 341.5 149.5 320 176 320h32v33.09c-33.1 2.545-61.34 11.88-80 20.32V368zM240 480c0-8.838-7.164-15.89-16-15.89S208 471.2 208 480H32c0-47.24 25.81-88.4 64-110.5V400c0 5.891 3.25 11.3 8.438 14.08c5.188 2.797 11.53 2.516 16.41-.75C121.3 413 165.9 384 224 384s102.7 29.05 103.2 29.33c2.656 1.766 5.75 2.656 8.844 2.656c2.594 0 5.188-.625 7.562-1.906C348.8 411.3 352 405.9 352 400v-30.54C390.2 391.6 416 432.8 416 480H240zM224 400c-8.836 0-16 7.162-16 16c0 8.836 7.164 16 16 16s16-7.164 16-16C240 407.2 232.8 400 224 400zM192 144c8.836 0 16-7.164 16-16c0-8.838-7.164-16-16-16S176 119.2 176 128C176 136.8 183.2 144 192 144zM256 144c8.836 0 16-7.164 16-16c0-8.838-7.164-16-16-16S240 119.2 240 128C240 136.8 247.2 144 256 144zM188 204c14.34 0 27.78-7.316 36-12.91C232.2 196.7 245.7 204 260 204c6.625 0 12-5.377 12-12.01c0-6.627-5.375-12-12-12c-10.91 0-23.94-9.379-28.06-12.99c-4.5-4-11.38-4-15.88 0C211.9 170.6 198.9 179.1 188 179.1c-6.625 0-12 5.377-12 12C176 198.6 181.4 204 188 204zM109.3 255.5h57.02C183.2 265.8 202.8 272 224 272s40.82-6.232 57.73-16.47h57.02C363.7 255.5 384 235.3 384 210.3c0-12-4.768-23.51-13.25-32C358.7 166.3 352 149.1 352 133V127.5c0-12.26-7.129-22.56-17.25-27.94C328.5 43.65 281.6 0 224 0S119.5 43.65 113.3 99.59C103.1 104.1 96 115.3 96 127.5v5.492c0 16.97-6.742 33.25-18.75 45.25C68.77 186.8 64 198.3 64 210.3C64 235.3 84.26 255.5 109.3 255.5zM333.8 181.1c4.037 6.756 8.621 13.22 14.33 18.93C350.6 203.4 352 206.7 352 210.3c0 7.309-5.945 13.25-13.25 13.25h-22.62C324.6 211.2 330.8 197.2 333.8 181.1zM144 112C144 67.89 179.9 32 224 32s80 35.89 80 80V160c0 40-29.6 72.94-68 78.79V224c0-6.625-5.375-12-12-12S212 217.4 212 224v14.79C173.6 232.9 144 200 144 160V112zM99.88 200.9c5.711-5.711 10.3-12.17 14.33-18.93c3.025 15.21 9.16 29.25 17.66 41.56H109.3C101.9 223.5 96 217.6 96 210.3C96 206.7 97.38 203.4 99.88 200.9z"/></svg>

<svg xmlns="http://www.w3.org/2000/svg" viewBox="0 0 448 512"><!-- Font Awesome Pro 6.0.0-alpha2 by @fontawesome - https://fontawesome.com License - https://fontawesome.com/license (Commercial License) --><path d="M341.838 329.775C328.227 305.016 302.205 288 272 288H176C145.795 288 119.773 305.016 106.162 329.775C44.352 351.881 0 410.584 0 480C0 497.672 14.326 512 32 512H416C433.674 512 448 497.672 448 480C448 410.584 403.648 351.881 341.838 329.775ZM240 320H272C298.469 320 320 341.531 320 368V373.406C301.34 364.965 273.098 355.633 240 353.088V320ZM128 368C128 341.531 149.531 320 176 320H208V353.088C174.902 355.633 146.66 364.965 128 373.406V368ZM240 480C240 471.162 232.836 464 224 464S208 471.162 208 480H32C32 432.76 57.809 391.598 96 369.461V400C96 405.891 99.25 411.297 104.438 414.078C109.625 416.875 115.969 416.594 120.844 413.328C121.281 413.047 165.938 384 224 384S326.719 413.047 327.156 413.328C329.812 415.094 332.906 415.984 336 415.984C338.594 415.984 341.188 415.359 343.562 414.078C348.75 411.297 352 405.891 352 400V369.461C390.191 391.598 416 432.76 416 480H240ZM224 400C215.164 400 208 407.162 208 416C208 424.836 215.164 432 224 432S240 424.836 240 416C240 407.162 232.836 400 224 400ZM192 144C200.836 144 208 136.836 208 128C208 119.162 200.836 112 192 112S176 119.162 176 128C176 136.836 183.164 144 192 144ZM256 144C264.836 144 272 136.836 272 128C272 119.162 264.836 112 256 112S240 119.162 240 128C240 136.836 247.164 144 256 144ZM188 204C202.344 204 215.781 196.684 224 191.088C232.219 196.684 245.656 204 260 204C266.625 204 272 198.623 272 191.994C272 185.367 266.625 179.99 260 179.99C249.094 179.99 236.062 170.611 231.938 167C227.438 163 220.562 163 216.062 167C211.938 170.611 198.906 179.99 188 179.99C181.375 179.99 176 185.367 176 191.994C176 198.623 181.375 204 188 204ZM109.254 255.527H166.273C183.18 265.768 202.793 272 224 272S264.82 265.768 281.727 255.527H338.746C363.738 255.527 384 235.27 384 210.273C384 198.27 379.232 186.762 370.746 178.273C358.742 166.27 352 149.992 352 133.02V127.527C352 115.27 344.871 104.963 334.748 99.588C328.496 43.652 281.604 0 224 0S119.504 43.652 113.252 99.588C103.129 104.963 96 115.27 96 127.527V133.02C96 149.992 89.258 166.27 77.254 178.273C68.768 186.762 64 198.27 64 210.273C64 235.27 84.262 255.527 109.254 255.527ZM333.785 181.973C337.822 188.729 342.406 195.189 348.115 200.898C350.621 203.404 352 206.734 352 210.273C352 217.582 346.055 223.527 338.746 223.527H316.121C324.625 211.219 330.758 197.176 333.785 181.973ZM144 112C144 67.887 179.889 32 224 32S304 67.887 304 112V160C304 200.002 274.396 232.939 236 238.785V224C236 217.375 230.625 212 224 212S212 217.375 212 224V238.785C173.604 232.939 144 200.002 144 160V112ZM99.881 200.902C105.592 195.191 110.178 188.729 114.215 181.971C117.24 197.176 123.375 211.219 131.879 223.527H109.254C101.945 223.527 96 217.582 96 210.273C96 206.734 97.379 203.404 99.881 200.902Z"/></svg>
